static/img/kroki/3252618ee74da84bef6c38027604c39a.svg

<?xml version="1.0" encoding="us-ascii" standalone="no"?><svg xmlns="http://www.w3.org/2000/svg" xmlns:xlink="http://www.w3.org/1999/xlink" contentStyleType="text/css" height="1188px" preserveAspectRatio="none" style="width:359px;height:1188px;" version="1.1" viewBox="0 0 359 1188" width="359px" zoomAndPan="magnify"><defs/><g><!--class aws_backup_restore_job--><g id="elem_aws_backup_restore_job"><rect codeLine="23" fill="#3D176E" height="547.4297" id="aws_backup_restore_job" rx="2.5" ry="2.5" style="stroke:#000D19;stroke-width:0.5;" width="345" x="7" y="633.84"/><ellipse cx="68.75" cy="653.7345" fill="#ADD1B2" rx="11" ry="11" style="stroke:#181818;stroke-width:1.0;"/><path d="M71.7188,659.3752 Q71.1406,659.672 70.5,659.8127 Q69.8594,659.9689 69.1563,659.9689 Q66.6563,659.9689 65.3281,658.3283 Q64.0156,656.672 64.0156,653.547 Q64.0156,650.422 65.3281,648.7658 Q66.6563,647.1095 69.1563,647.1095 Q69.8594,647.1095 70.5,647.2658 Q71.1563,647.422 71.7188,647.7189 L71.7188,650.4377 Q71.0938,649.8595 70.5,649.5939 Q69.9063,649.3127 69.2813,649.3127 Q67.9375,649.3127 67.25,650.3908 Q66.5625,651.4533 66.5625,653.547 Q66.5625,655.6408 67.25,656.7189 Q67.9375,657.7814 69.2813,657.7814 Q69.9063,657.7814 70.5,657.5158 Q71.0938,657.2345 71.7188,656.6564 L71.7188,659.3752 Z " fill="#000000"/><text fill="#D9B8FF" font-family="Helvetica" font-size="17" lengthAdjust="spacing" textLength="203" x="94.25" y="659.6198">aws_backup_restore_job</text><line style="stroke:#000D19;stroke-width:0.5;" x1="8" x2="351" y1="673.6291" y2="673.6291"/><text fill="#D9B8FF" font-family="sans-serif" font-size="14" font-weight="bold" lengthAdjust="spacing" textLength="84" x="18" y="695.6242">account_id</text><text fill="#D9B8FF" font-family="sans-serif" font-size="14" lengthAdjust="spacing" textLength="48" x="102" y="695.6242">: string</text><text fill="#D9B8FF" font-family="sans-serif" font-size="14" font-weight="bold" lengthAdjust="spacing" textLength="168" x="18" y="721.9211">backup_size_in_bytes</text><text fill="#D9B8FF" font-family="sans-serif" font-size="14" lengthAdjust="spacing" textLength="44" x="186" y="721.9211">: int64</text><text fill="#D9B8FF" font-family="sans-serif" font-size="14" font-weight="bold" lengthAdjust="spacing" textLength="129" x="18" y="748.2179">completion_date</text><text fill="#D9B8FF" font-family="sans-serif" font-size="14" lengthAdjust="spacing" textLength="70" x="147" y="748.2179">: datetime</text><text fill="#D9B8FF" font-family="sans-serif" font-size="14" font-weight="bold" lengthAdjust="spacing" textLength="173" x="18" y="774.5148">created_resource_arn</text><text fill="#D9B8FF" font-family="sans-serif" font-size="14" lengthAdjust="spacing" textLength="48" x="191" y="774.5148">: string</text><text fill="#D9B8FF" font-family="sans-serif" font-size="14" font-weight="bold" lengthAdjust="spacing" textLength="107" x="18" y="800.8117">creation_date</text><text fill="#D9B8FF" font-family="sans-serif" font-size="14" lengthAdjust="spacing" textLength="70" x="125" y="800.8117">: datetime</text><text fill="#D9B8FF" font-family="sans-serif" font-size="14" font-weight="bold" lengthAdjust="spacing" textLength="120" x="18" y="827.1086">deletion_status</text><text fill="#D9B8FF" font-family="sans-serif" font-size="14" lengthAdjust="spacing" textLength="48" x="138" y="827.1086">: string</text><text fill="#D9B8FF" font-family="sans-serif" font-size="14" font-weight="bold" lengthAdjust="spacing" textLength="198" x="18" y="853.4054">deletion_status_message</text><text fill="#D9B8FF" font-family="sans-serif" font-size="14" lengthAdjust="spacing" textLength="48" x="216" y="853.4054">: string</text><text fill="#D9B8FF" font-family="sans-serif" font-size="14" font-weight="bold" lengthAdjust="spacing" textLength="279" x="18" y="879.7023">expected_completion_time_minutes</text><text fill="#D9B8FF" font-family="sans-serif" font-size="14" lengthAdjust="spacing" textLength="44" x="297" y="879.7023">: int64</text><text fill="#D9B8FF" font-family="sans-serif" font-size="14" font-weight="bold" lengthAdjust="spacing" textLength="98" x="18" y="905.9992">iam_role_arn</text><text fill="#D9B8FF" font-family="sans-serif" font-size="14" lengthAdjust="spacing" textLength="48" x="116" y="905.9992">: string</text><text fill="#D9B8FF" font-family="sans-serif" font-size="14" font-weight="bold" lengthAdjust="spacing" textLength="109" x="18" y="932.2961">percent_done</text><text fill="#D9B8FF" font-family="sans-serif" font-size="14" lengthAdjust="spacing" textLength="48" x="127" y="932.2961">: string</text><text fill="#D9B8FF" font-family="sans-serif" font-size="14" font-weight="bold" lengthAdjust="spacing" textLength="151" x="18" y="958.5929">recovery_point_arn</text><text fill="#D9B8FF" font-family="sans-serif" font-size="14" lengthAdjust="spacing" textLength="48" x="169" y="958.5929">: string</text><text fill="#D9B8FF" font-family="sans-serif" font-size="14" font-weight="bold" lengthAdjust="spacing" textLength="232" x="18" y="984.8898">recovery_point_creation_date</text><text fill="#D9B8FF" font-family="sans-serif" font-size="14" lengthAdjust="spacing" textLength="70" x="250" y="984.8898">: datetime</text><text fill="#D9B8FF" font-family="sans-serif" font-size="14" font-weight="bold" lengthAdjust="spacing" textLength="114" x="18" y="1011.1867">resource_type</text><text fill="#D9B8FF" font-family="sans-serif" font-size="14" lengthAdjust="spacing" textLength="48" x="132" y="1011.1867">: string</text><text fill="#D9B8FF" font-family="sans-serif" font-size="14" font-weight="bold" lengthAdjust="spacing" textLength="184" x="18" y="1037.4836">restore_job_created_by</text><text fill="#D9B8FF" font-family="sans-serif" font-size="14" lengthAdjust="spacing" textLength="48" x="202" y="1037.4836">: string</text><text fill="#D9B8FF" font-family="sans-serif" font-size="14" font-weight="bold" lengthAdjust="spacing" textLength="111" x="18" y="1063.7804">restore_job_id</text><text fill="#D9B8FF" font-family="sans-serif" font-size="14" lengthAdjust="spacing" textLength="48" x="129" y="1063.7804">: string</text><text fill="#D9B8FF" font-family="sans-serif" font-size="14" font-weight="bold" lengthAdjust="spacing" textLength="49" x="18" y="1090.0773">status</text><text fill="#D9B8FF" font-family="sans-serif" font-size="14" lengthAdjust="spacing" textLength="48" x="67" y="1090.0773">: string</text><text fill="#D9B8FF" font-family="sans-serif" font-size="14" font-weight="bold" lengthAdjust="spacing" textLength="127" x="18" y="1116.3742">status_message</text><text fill="#D9B8FF" font-family="sans-serif" font-size="14" lengthAdjust="spacing" textLength="48" x="145" y="1116.3742">: string</text><text fill="#D9B8FF" font-family="sans-serif" font-size="14" font-weight="bold" lengthAdjust="spacing" textLength="131" x="18" y="1142.6711">validation_status</text><text fill="#D9B8FF" font-family="sans-serif" font-size="14" lengthAdjust="spacing" textLength="48" x="149" y="1142.6711">: string</text><text fill="#D9B8FF" font-family="sans-serif" font-size="14" font-weight="bold" lengthAdjust="spacing" textLength="209" x="18" y="1168.9679">validation_status_message</text><text fill="#D9B8FF" font-family="sans-serif" font-size="14" lengthAdjust="spacing" textLength="48" x="227" y="1168.9679">: string</text></g><!--class aws_resource--><g id="elem_aws_resource"><rect codeLine="44" fill="#3D176E" height="74.0859" id="aws_resource" rx="2.5" ry="2.5" style="stroke:#000D19;stroke-width:0.5;" width="155" x="102" y="438.75"/><ellipse cx="117" cy="458.6445" fill="#ADD1B2" rx="11" ry="11" style="stroke:#181818;stroke-width:1.0;"/><path d="M119.9688,464.2852 Q119.3906,464.582 118.75,464.7227 Q118.1094,464.8789 117.4063,464.8789 Q114.9063,464.8789 113.5781,463.2383 Q112.2656,461.582 112.2656,458.457 Q112.2656,455.332 113.5781,453.6758 Q114.9063,452.0195 117.4063,452.0195 Q118.1094,452.0195 118.75,452.1758 Q119.4063,452.332 119.9688,452.6289 L119.9688,455.3477 Q119.3438,454.7695 118.75,454.5039 Q118.1563,454.2227 117.5313,454.2227 Q116.1875,454.2227 115.5,455.3008 Q114.8125,456.3633 114.8125,458.457 Q114.8125,460.5508 115.5,461.6289 Q116.1875,462.6914 117.5313,462.6914 Q118.1563,462.6914 118.75,462.4258 Q119.3438,462.1445 119.9688,461.5664 L119.9688,464.2852 Z " fill="#000000"/><text fill="#D9B8FF" font-family="Helvetica" font-size="17" lengthAdjust="spacing" textLength="113" x="136" y="464.5298">aws_resource</text><line style="stroke:#000D19;stroke-width:0.5;" x1="103" x2="256" y1="478.5391" y2="478.5391"/><text fill="#D9B8FF" font-family="sans-serif" font-size="14" font-weight="bold" lengthAdjust="spacing" textLength="26" x="113" y="500.5342">arn</text><text fill="#D9B8FF" font-family="sans-serif" font-size="14" lengthAdjust="spacing" textLength="48" x="139" y="500.5342">: string</text></g><!--class resource--><g id="elem_resource"><rect codeLine="47" fill="#3D176E" height="310.7578" id="resource" rx="2.5" ry="2.5" style="stroke:#000D19;stroke-width:0.5;" width="227" x="66" y="7"/><ellipse cx="134.75" cy="26.8945" fill="#ADD1B2" rx="11" ry="11" style="stroke:#181818;stroke-width:1.0;"/><path d="M137.7188,32.5352 Q137.1406,32.832 136.5,32.9727 Q135.8594,33.1289 135.1563,33.1289 Q132.6563,33.1289 131.3281,31.4883 Q130.0156,29.832 130.0156,26.707 Q130.0156,23.582 131.3281,21.9258 Q132.6563,20.2695 135.1563,20.2695 Q135.8594,20.2695 136.5,20.4258 Q137.1563,20.582 137.7188,20.8789 L137.7188,23.5977 Q137.0938,23.0195 136.5,22.7539 Q135.9063,22.4727 135.2813,22.4727 Q133.9375,22.4727 133.25,23.5508 Q132.5625,24.6133 132.5625,26.707 Q132.5625,28.8008 133.25,29.8789 Q133.9375,30.9414 135.2813,30.9414 Q135.9063,30.9414 136.5,30.6758 Q137.0938,30.3945 137.7188,29.8164 L137.7188,32.5352 Z " fill="#000000"/><text fill="#D9B8FF" font-family="Helvetica" font-size="17" lengthAdjust="spacing" textLength="71" x="160.25" y="32.7798">resource</text><line style="stroke:#000D19;stroke-width:0.5;" x1="67" x2="292" y1="46.7891" y2="46.7891"/><text fill="#D9B8FF" font-family="sans-serif" font-size="14" font-weight="bold" lengthAdjust="spacing" textLength="29" x="77" y="68.7842">age</text><text fill="#D9B8FF" font-family="sans-serif" font-size="14" lengthAdjust="spacing" textLength="66" x="106" y="68.7842">: duration</text><text fill="#D9B8FF" font-family="sans-serif" font-size="14" font-weight="bold" lengthAdjust="spacing" textLength="43" x="77" y="95.0811">atime</text><text fill="#D9B8FF" font-family="sans-serif" font-size="14" lengthAdjust="spacing" textLength="70" x="120" y="95.0811">: datetime</text><text fill="#D9B8FF" font-family="sans-serif" font-size="14" font-weight="bold" lengthAdjust="spacing" textLength="43" x="77" y="121.3779">ctime</text><text fill="#D9B8FF" font-family="sans-serif" font-size="14" lengthAdjust="spacing" textLength="70" x="120" y="121.3779">: datetime</text><text fill="#D9B8FF" font-family="sans-serif" font-size="14" font-weight="bold" lengthAdjust="spacing" textLength="14" x="77" y="147.6748">id</text><text fill="#D9B8FF" font-family="sans-serif" font-size="14" lengthAdjust="spacing" textLength="48" x="91" y="147.6748">: string</text><text fill="#D9B8FF" font-family="sans-serif" font-size="14" font-weight="bold" lengthAdjust="spacing" textLength="33" x="77" y="173.9717">kind</text><text fill="#D9B8FF" font-family="sans-serif" font-size="14" lengthAdjust="spacing" textLength="48" x="110" y="173.9717">: string</text><text fill="#D9B8FF" font-family="sans-serif" font-size="14" font-weight="bold" lengthAdjust="spacing" textLength="90" x="77" y="200.2686">last_access</text><text fill="#D9B8FF" font-family="sans-serif" font-size="14" lengthAdjust="spacing" textLength="66" x="167" y="200.2686">: duration</text><text fill="#D9B8FF" font-family="sans-serif" font-size="14" font-weight="bold" lengthAdjust="spacing" textLength="90" x="77" y="226.5654">last_update</text><text fill="#D9B8FF" font-family="sans-serif" font-size="14" lengthAdjust="spacing" textLength="66" x="167" y="226.5654">: duration</text><text fill="#D9B8FF" font-family="sans-serif" font-size="14" font-weight="bold" lengthAdjust="spacing" textLength="48" x="77" y="252.8623">mtime</text><text fill="#D9B8FF" font-family="sans-serif" font-size="14" lengthAdjust="spacing" textLength="70" x="125" y="252.8623">: datetime</text><text fill="#D9B8FF" font-family="sans-serif" font-size="14" font-weight="bold" lengthAdjust="spacing" textLength="43" x="77" y="279.1592">name</text><text fill="#D9B8FF" font-family="sans-serif" font-size="14" lengthAdjust="spacing" textLength="48" x="120" y="279.1592">: string</text><text fill="#D9B8FF" font-family="sans-serif" font-size="14" font-weight="bold" lengthAdjust="spacing" textLength="34" x="77" y="305.4561">tags</text><text fill="#D9B8FF" font-family="sans-serif" font-size="14" lengthAdjust="spacing" textLength="171" x="111" y="305.4561">: dictionary[string, string]</text></g><!--reverse link aws_resource to aws_backup_restore_job--><g id="link_aws_resource_aws_backup_restore_job"><path codeLine="59" d="M179.5,531.07 C179.5,560.11 179.5,585.78 179.5,633.6 " fill="none" id="aws_resource-backto-aws_backup_restore_job" style="stroke:#FFAF37;stroke-width:2.0;"/><polygon fill="none" points="179.5,513.07,173.5,531.07,185.5,531.07,179.5,513.07" style="stroke:#FFAF37;stroke-width:2.0;"/></g><!--reverse link resource to aws_resource--><g id="link_resource_aws_resource"><path codeLine="60" d="M179.5,336.17 C179.5,381.21 179.5,408.34 179.5,438.51 " fill="none" id="resource-backto-aws_resource" style="stroke:#FFAF37;stroke-width:2.0;"/><polygon fill="none" points="179.5,318.17,173.5,336.17,185.5,336.17,179.5,318.17" style="stroke:#FFAF37;stroke-width:2.0;"/></g><!--SRC=[XPDFZzCm4CNl-HIHzbPHgMLXkqLSbae8BYl4SaF8cjYJrZIsex7J4lvyT-ocwIPEqZrLdVVpcvbdPoS5fgXALwSALOPa4xkNkWG2bJuGcUF658RIcpo7_7OLYn-DTYy2Zw0m_OJ50Pta41FVTfBlDLgRlkv87u3ljsGgBHfxHw2jbr2x3hKfmDe7vqXcbSFEC6ATtUTvJCQcDxTYkRh30MP889sHnM8XbkiOUR7LrRqln9FyZUco6zgZSJWOSz3YH5sTCX2T8GUBjlhaZ5z02ActwTjExMip4scaNlrf1y8S0vr3ORjjh4D2u-eIDuEjS7qlyjKe_7aAJdY8BeMZPPb7gf8HMcS8sK-JfN-IsGmuzySSas8sU-SjoO_bosVQ-i2Pr2oh7Te0IEtktdYT6rKMFWEZcG27GGg_JYeCAg7_8q8pKn571gHxzYTWuh30ix5ru2hREnTfJFdl0BROO_1NYJnqxymOh9cIkehMaA0OcM8uO8b-R1-BCBhlJiZD0QbcfV4cWtEHV6tFIpZX1YEJonsnDigidaIYgnk9xKfQ1oYaWAcy1-g8nx_E8sjtQfvMBviMwoEDawZer2HKGZhnSngfHKlxZw9VyBtyxN3knuqwd9IglDp8iw96-cXG_S0SR1j7oSCneFfxexqwCp_yghqitl-Tp-SJts0oGhMbv3y0]--></g></svg>

<svg xmlns="http://www.w3.org/2000/svg" width="359" height="1188" viewBox="0 0 359 1188"><rect width="345" height="547.43" x="7" y="633.84" fill="#3D176E" rx="2.5" ry="2.5" style="stroke:#000d19;stroke-width:.5"/><circle cx="68.75" cy="653.735" r="11" fill="#ADD1B2" style="stroke:#181818;stroke-width:1"/><path d="M71.719 659.375q-.578.297-1.219.438-.64.156-1.344.156-2.5 0-3.828-1.64-1.312-1.657-1.312-4.782t1.312-4.781q1.328-1.656 3.828-1.656.703 0 1.344.156.656.156 1.219.453v2.719q-.625-.578-1.219-.844-.594-.281-1.219-.281-1.344 0-2.031 1.078-.687 1.062-.687 3.156t.687 3.172q.688 1.062 2.031 1.062.625 0 1.219-.265.594-.281 1.219-.86z"/><text x="94.25" y="659.62" fill="#D9B8FF" font-family="Helvetica" font-size="17" textLength="203">aws_backup_restore_job</text><path d="M8 673.629h343" style="stroke:#000d19;stroke-width:.5"/><text x="18" y="695.624" fill="#D9B8FF" font-family="sans-serif" font-size="14" font-weight="bold" textLength="84">account_id</text><text x="102" y="695.624" fill="#D9B8FF" font-family="sans-serif" font-size="14" textLength="48">: string</text><text x="18" y="721.921" fill="#D9B8FF" font-family="sans-serif" font-size="14" font-weight="bold" textLength="168">backup_size_in_bytes</text><text x="186" y="721.921" fill="#D9B8FF" font-family="sans-serif" font-size="14" textLength="44">: int64</text><text x="18" y="748.218" fill="#D9B8FF" font-family="sans-serif" font-size="14" font-weight="bold" textLength="129">completion_date</text><text x="147" y="748.218" fill="#D9B8FF" font-family="sans-serif" font-size="14" textLength="70">: datetime</text><text x="18" y="774.515" fill="#D9B8FF" font-family="sans-serif" font-size="14" font-weight="bold" textLength="173">created_resource_arn</text><text x="191" y="774.515" fill="#D9B8FF" font-family="sans-serif" font-size="14" textLength="48">: string</text><text x="18" y="800.812" fill="#D9B8FF" font-family="sans-serif" font-size="14" font-weight="bold" textLength="107">creation_date</text><text x="125" y="800.812" fill="#D9B8FF" font-family="sans-serif" font-size="14" textLength="70">: datetime</text><text x="18" y="827.109" fill="#D9B8FF" font-family="sans-serif" font-size="14" font-weight="bold" textLength="120">deletion_status</text><text x="138" y="827.109" fill="#D9B8FF" font-family="sans-serif" font-size="14" textLength="48">: string</text><text x="18" y="853.405" fill="#D9B8FF" font-family="sans-serif" font-size="14" font-weight="bold" textLength="198">deletion_status_message</text><text x="216" y="853.405" fill="#D9B8FF" font-family="sans-serif" font-size="14" textLength="48">: string</text><text x="18" y="879.702" fill="#D9B8FF" font-family="sans-serif" font-size="14" font-weight="bold" textLength="279">expected_completion_time_minutes</text><text x="297" y="879.702" fill="#D9B8FF" font-family="sans-serif" font-size="14" textLength="44">: int64</text><text x="18" y="905.999" fill="#D9B8FF" font-family="sans-serif" font-size="14" font-weight="bold" textLength="98">iam_role_arn</text><text x="116" y="905.999" fill="#D9B8FF" font-family="sans-serif" font-size="14" textLength="48">: string</text><text x="18" y="932.296" fill="#D9B8FF" font-family="sans-serif" font-size="14" font-weight="bold" textLength="109">percent_done</text><text x="127" y="932.296" fill="#D9B8FF" font-family="sans-serif" font-size="14" textLength="48">: string</text><text x="18" y="958.593" fill="#D9B8FF" font-family="sans-serif" font-size="14" font-weight="bold" textLength="151">recovery_point_arn</text><text x="169" y="958.593" fill="#D9B8FF" font-family="sans-serif" font-size="14" textLength="48">: string</text><text x="18" y="984.89" fill="#D9B8FF" font-family="sans-serif" font-size="14" font-weight="bold" textLength="232">recovery_point_creation_date</text><text x="250" y="984.89" fill="#D9B8FF" font-family="sans-serif" font-size="14" textLength="70">: datetime</text><text x="18" y="1011.187" fill="#D9B8FF" font-family="sans-serif" font-size="14" font-weight="bold" textLength="114">resource_type</text><text x="132" y="1011.187" fill="#D9B8FF" font-family="sans-serif" font-size="14" textLength="48">: string</text><text x="18" y="1037.484" fill="#D9B8FF" font-family="sans-serif" font-size="14" font-weight="bold" textLength="184">restore_job_created_by</text><text x="202" y="1037.484" fill="#D9B8FF" font-family="sans-serif" font-size="14" textLength="48">: string</text><text x="18" y="1063.78" fill="#D9B8FF" font-family="sans-serif" font-size="14" font-weight="bold" textLength="111">restore_job_id</text><text x="129" y="1063.78" fill="#D9B8FF" font-family="sans-serif" font-size="14" textLength="48">: string</text><text x="18" y="1090.077" fill="#D9B8FF" font-family="sans-serif" font-size="14" font-weight="bold" textLength="49">status</text><text x="67" y="1090.077" fill="#D9B8FF" font-family="sans-serif" font-size="14" textLength="48">: string</text><text x="18" y="1116.374" fill="#D9B8FF" font-family="sans-serif" font-size="14" font-weight="bold" textLength="127">status_message</text><text x="145" y="1116.374" fill="#D9B8FF" font-family="sans-serif" font-size="14" textLength="48">: string</text><text x="18" y="1142.671" fill="#D9B8FF" font-family="sans-serif" font-size="14" font-weight="bold" textLength="131">validation_status</text><text x="149" y="1142.671" fill="#D9B8FF" font-family="sans-serif" font-size="14" textLength="48">: string</text><text x="18" y="1168.968" fill="#D9B8FF" font-family="sans-serif" font-size="14" font-weight="bold" textLength="209">validation_status_message</text><text x="227" y="1168.968" fill="#D9B8FF" font-family="sans-serif" font-size="14" textLength="48">: string</text><rect width="155" height="74.086" x="102" y="438.75" fill="#3D176E" rx="2.5" ry="2.5" style="stroke:#000d19;stroke-width:.5"/><circle cx="117" cy="458.644" r="11" fill="#ADD1B2" style="stroke:#181818;stroke-width:1"/><path d="M119.969 464.285q-.578.297-1.219.438-.64.156-1.344.156-2.5 0-3.828-1.64-1.312-1.657-1.312-4.782t1.312-4.781q1.328-1.656 3.828-1.656.703 0 1.344.156.656.156 1.219.453v2.719q-.625-.579-1.219-.844-.594-.281-1.219-.281-1.344 0-2.031 1.078-.687 1.062-.687 3.156t.687 3.172q.688 1.062 2.031 1.062.625 0 1.219-.265.594-.281 1.219-.86z"/><text x="136" y="464.53" fill="#D9B8FF" font-family="Helvetica" font-size="17" textLength="113">aws_resource</text><path d="M103 478.539h153" style="stroke:#000d19;stroke-width:.5"/><text x="113" y="500.534" fill="#D9B8FF" font-family="sans-serif" font-size="14" font-weight="bold" textLength="26">arn</text><text x="139" y="500.534" fill="#D9B8FF" font-family="sans-serif" font-size="14" textLength="48">: string</text><rect width="227" height="310.758" x="66" y="7" fill="#3D176E" rx="2.5" ry="2.5" style="stroke:#000d19;stroke-width:.5"/><circle cx="134.75" cy="26.895" r="11" fill="#ADD1B2" style="stroke:#181818;stroke-width:1"/><path d="M137.719 32.535q-.578.297-1.219.438-.64.156-1.344.156-2.5 0-3.828-1.64-1.312-1.657-1.312-4.782t1.312-4.781q1.328-1.656 3.828-1.656.703 0 1.344.156.656.156 1.219.453v2.719q-.625-.578-1.219-.844-.594-.281-1.219-.281-1.344 0-2.031 1.078-.687 1.062-.687 3.156t.687 3.172q.688 1.062 2.031 1.062.625 0 1.219-.265.594-.281 1.219-.86z"/><text x="160.25" y="32.78" fill="#D9B8FF" font-family="Helvetica" font-size="17" textLength="71">resource</text><path d="M67 46.789h225" style="stroke:#000d19;stroke-width:.5"/><text x="77" y="68.784" fill="#D9B8FF" font-family="sans-serif" font-size="14" font-weight="bold" textLength="29">age</text><text x="106" y="68.784" fill="#D9B8FF" font-family="sans-serif" font-size="14" textLength="66">: duration</text><text x="77" y="95.081" fill="#D9B8FF" font-family="sans-serif" font-size="14" font-weight="bold" textLength="43">atime</text><text x="120" y="95.081" fill="#D9B8FF" font-family="sans-serif" font-size="14" textLength="70">: datetime</text><text x="77" y="121.378" fill="#D9B8FF" font-family="sans-serif" font-size="14" font-weight="bold" textLength="43">ctime</text><text x="120" y="121.378" fill="#D9B8FF" font-family="sans-serif" font-size="14" textLength="70">: datetime</text><text x="77" y="147.675" fill="#D9B8FF" font-family="sans-serif" font-size="14" font-weight="bold" textLength="14">id</text><text x="91" y="147.675" fill="#D9B8FF" font-family="sans-serif" font-size="14" textLength="48">: string</text><text x="77" y="173.972" fill="#D9B8FF" font-family="sans-serif" font-size="14" font-weight="bold" textLength="33">kind</text><text x="110" y="173.972" fill="#D9B8FF" font-family="sans-serif" font-size="14" textLength="48">: string</text><text x="77" y="200.269" fill="#D9B8FF" font-family="sans-serif" font-size="14" font-weight="bold" textLength="90">last_access</text><text x="167" y="200.269" fill="#D9B8FF" font-family="sans-serif" font-size="14" textLength="66">: duration</text><text x="77" y="226.565" fill="#D9B8FF" font-family="sans-serif" font-size="14" font-weight="bold" textLength="90">last_update</text><text x="167" y="226.565" fill="#D9B8FF" font-family="sans-serif" font-size="14" textLength="66">: duration</text><text x="77" y="252.862" fill="#D9B8FF" font-family="sans-serif" font-size="14" font-weight="bold" textLength="48">mtime</text><text x="125" y="252.862" fill="#D9B8FF" font-family="sans-serif" font-size="14" textLength="70">: datetime</text><text x="77" y="279.159" fill="#D9B8FF" font-family="sans-serif" font-size="14" font-weight="bold" textLength="43">name</text><text x="120" y="279.159" fill="#D9B8FF" font-family="sans-serif" font-size="14" textLength="48">: string</text><text x="77" y="305.456" fill="#D9B8FF" font-family="sans-serif" font-size="14" font-weight="bold" textLength="34">tags</text><text x="111" y="305.456" fill="#D9B8FF" font-family="sans-serif" font-size="14" textLength="171">: dictionary[string, string]</text><path fill="none" d="M179.5 531.07V633.6m0-120.53-6 18h12zm0-176.9v102.34m0-120.34-6 18h12z" style="stroke:#ffaf37;stroke-width:2"/></svg>
